src/img/icon-telegram.svg

<svg width="16" height="16" viewBox="0 0 16 16" fill="none" xmlns="http://www.w3.org/2000/svg">
<g clip-path="url(#clip0)">
<path d="M5.8335 11.7412V14.8332C5.8335 15.0492 5.97216 15.2405 6.17749 15.3085C6.22883 15.3252 6.28149 15.3332 6.33349 15.3332C6.48949 15.3332 6.64016 15.2599 6.73616 15.1292L8.54482 12.6679L5.8335 11.7412Z" fill="#1E1E1E"/>
<path d="M15.79 0.0927257C15.6367 -0.0159409 15.4354 -0.0306076 15.2687 0.0567257L0.268696 7.89006C0.091363 7.98273 -0.0133037 8.17206 0.00136299 8.37139C0.0166963 8.57139 0.149363 8.74206 0.33803 8.80673L4.50803 10.2321L13.3887 2.63873L6.5167 10.9181L13.5054 13.3067C13.5574 13.3241 13.612 13.3334 13.6667 13.3334C13.7574 13.3334 13.8474 13.3087 13.9267 13.2607C14.0534 13.1834 14.1394 13.0534 14.1614 12.9074L15.9947 0.574059C16.022 0.387392 15.9434 0.202059 15.79 0.0927257Z" fill="#1E1E1E"/>
</g>
<defs>
<clipPath id="clip0">
<rect width="16" height="16" fill="white"/>
</clipPath>
</defs>
</svg>

<svg width="16" height="16" fill="none" xmlns="http://www.w3.org/2000/svg"><g clip-path="url(#clip0)" fill="#1E1E1E"><path d="M5.833 11.741v3.092a.5.5 0 00.903.296l1.809-2.461-2.712-.927zM15.79.093a.5.5 0 00-.521-.036l-15 7.833a.501.501 0 00.069.917l4.17 1.425 8.88-7.593-6.871 8.28 6.988 2.388a.51.51 0 00.422-.046.502.502 0 00.234-.354L15.995.574a.5.5 0 00-.205-.481z"/></g><defs><clipPath id="clip0"><path fill="#fff" d="M0 0h16v16H0z"/></clipPath></defs></svg>
